X:502
T: MICH FLIEHEN ALLE FREUDEN
N: F0954
O: Europa, Mitteleuropa, Deutschland
R: Liebes - Lied, Klage
M: 6/8
L: 1/16
K: G
d2 | B4B2A4A2 | G4G2z4
d2 | d4G2e4e2 | A6z4
A2 | B4B2c4c2 | d6e4
e2 | G4G2A4GA | G4z6
d2 | ^G4G2e4d2 | c3cc2z4
c2 | F4F2d4c2 | B3BB2z4
G2 | ^c4c2c4c2 | d4z6
d2 | c4c2B4B2 | A4A2z4
A2 | B4B2c4c2 | d4z6
e2 | G4G2A4GA | G4z6

@@@ Tune index: 5933
